src/lib/packages/icons/src/assets/line/phone-slash.svg

<svg width="24" height="24" viewBox="0 0 24 24" fill="none" xmlns="http://www.w3.org/2000/svg">
<path d="M8.18406 16.876L10.57 14.49C10.571 14.489 10.571 14.489 10.572 14.489C10.572 14.488 10.573 14.488 10.573 14.487L21.53 3.52999C21.823 3.23699 21.823 2.76199 21.53 2.46899C21.237 2.17599 20.762 2.17599 20.469 2.46899L10.0581 12.88C9.43508 12.168 8.90486 11.375 8.48386 10.504L9.61692 9.75399C10.8619 8.91899 11.2381 7.26799 10.4741 5.99899L8.91208 3.354C8.42508 2.544 7.49408 2.119 6.57908 2.285C6.55908 2.287 6.53902 2.29101 6.51902 2.29501C5.07302 2.58901 3.80007 3.47899 3.02707 4.73599C2.26107 5.98199 2.05103 7.435 2.43503 8.829C3.20503 11.628 4.64396 14.203 6.60496 16.333L2.46897 20.469C2.17597 20.762 2.17597 21.237 2.46897 21.53C2.61497 21.676 2.807 21.75 2.999 21.75C3.191 21.75 3.38303 21.677 3.52903 21.53L8.16892 16.89C8.17492 16.885 8.17906 16.881 8.18406 16.876ZM3.88108 8.432C3.61008 7.443 3.75988 6.41 4.30588 5.522C4.85488 4.629 5.75403 3.99298 6.77903 3.77398C6.79703 3.77198 6.81303 3.76901 6.83103 3.76501C7.14003 3.70001 7.455 3.842 7.624 4.122L9.18699 6.76699C9.54099 7.35399 9.36286 8.119 8.78586 8.505L7.12595 9.605C6.82595 9.804 6.70888 10.188 6.84788 10.52C7.38188 11.794 8.11188 12.935 9.00388 13.937L7.66697 15.274C5.88897 13.328 4.58308 10.98 3.88108 8.432ZM21.75 17.032C21.75 17.184 21.7341 17.335 21.7041 17.483C21.4181 18.921 20.5349 20.192 19.2829 20.966C18.4399 21.486 17.502 21.753 16.549 21.753C16.09 21.753 15.6279 21.691 15.1709 21.566C13.0509 20.978 11.1029 20.044 9.3779 18.789C9.0429 18.545 8.96887 18.076 9.21287 17.741C9.45587 17.407 9.92396 17.331 10.261 17.576C11.84 18.725 13.626 19.581 15.57 20.12C16.568 20.392 17.6051 20.24 18.4951 19.69C19.3941 19.134 20.0291 18.222 20.2351 17.186C20.2461 17.133 20.251 17.084 20.251 17.032C20.251 16.783 20.104 16.531 19.874 16.389L17.237 14.816C16.648 14.462 15.8819 14.637 15.4909 15.213L14.373 16.88C14.175 17.177 13.7951 17.293 13.4651 17.156C12.9411 16.94 12.4119 16.675 11.8969 16.367C11.5409 16.155 11.424 15.694 11.636 15.339C11.849 14.984 12.31 14.867 12.664 15.079C12.935 15.24 13.207 15.387 13.479 15.52L14.247 14.375C15.087 13.136 16.737 12.766 18.008 13.53L20.654 15.109C21.335 15.531 21.75 16.265 21.75 17.032Z" fill="currentColor"/>
</svg>

<svg xmlns="http://www.w3.org/2000/svg" width="24" height="24" fill="none"><path fill="currentColor" d="m8.184 16.876 2.386-2.386.002-.001.001-.002L21.53 3.53a.75.75 0 1 0-1.061-1.061L10.059 12.88a10.616 10.616 0 0 1-1.575-2.376l1.133-.75c1.245-.835 1.621-2.486.857-3.755L8.912 3.354A2.26 2.26 0 0 0 6.52 2.295a5.37 5.37 0 0 0-3.492 2.441 5.135 5.135 0 0 0-.592 4.093 18.24 18.24 0 0 0 4.17 7.504L2.47 20.469a.75.75 0 0 0 1.06 1.061l4.64-4.64a.209.209 0 0 0 .015-.014ZM3.881 8.432a3.657 3.657 0 0 1 .425-2.91A3.86 3.86 0 0 1 6.83 3.765a.747.747 0 0 1 .793.357l1.563 2.645a1.292 1.292 0 0 1-.401 1.738l-1.66 1.1a.75.75 0 0 0-.278.915 12.232 12.232 0 0 0 2.156 3.417l-1.337 1.337A16.762 16.762 0 0 1 3.88 8.432Zm17.869 8.6c0 .152-.016.303-.046.451a5.337 5.337 0 0 1-2.421 3.483 5.188 5.188 0 0 1-2.734.787c-.459 0-.921-.062-1.378-.187a17.959 17.959 0 0 1-5.793-2.777.75.75 0 1 1 .883-1.213 16.453 16.453 0 0 0 5.309 2.544 3.67 3.67 0 0 0 2.925-.43 3.834 3.834 0 0 0 1.74-2.504.74.74 0 0 0 .016-.154.78.78 0 0 0-.377-.643l-2.637-1.573a1.302 1.302 0 0 0-1.746.397l-1.118 1.667a.747.747 0 0 1-.908.276 11.927 11.927 0 0 1-1.568-.789.75.75 0 1 1 .767-1.288c.271.161.543.308.815.441l.768-1.145a2.802 2.802 0 0 1 3.761-.845l2.646 1.579a2.284 2.284 0 0 1 1.096 1.923Z"/></svg>
